src/lib/packages/icons/src/assets/line/more-vertical.svg

<svg xmlns="http://www.w3.org/2000/svg" width="24" height="24" fill="none"><path fill="currentColor" d="M12.02 5.5A1.504 1.504 0 0 1 10.515 4c0-.829.667-1.5 1.495-1.5h.01a1.5 1.5 0 1 1 0 3Zm1.5 6.5a1.5 1.5 0 0 0-1.5-1.5h-.01c-.828 0-1.495.671-1.495 1.5a1.504 1.504 0 0 0 3.005 0Zm0 8a1.5 1.5 0 0 0-1.5-1.5h-.01c-.828 0-1.495.671-1.495 1.5a1.504 1.504 0 0 0 3.005 0Z"/></svg>

<svg width="24" height="24" viewBox="0 0 24 24" fill="none" xmlns="http://www.w3.org/2000/svg">
<path d="M12.02 5.5C11.191 5.5 10.515 4.829 10.515 4C10.515 3.171 11.182 2.5 12.01 2.5H12.02C12.849 2.5 13.52 3.171 13.52 4C13.52 4.829 12.849 5.5 12.02 5.5ZM13.52 12C13.52 11.171 12.849 10.5 12.02 10.5H12.01C11.182 10.5 10.515 11.171 10.515 12C10.515 12.829 11.191 13.5 12.02 13.5C12.849 13.5 13.52 12.829 13.52 12ZM13.52 20C13.52 19.171 12.849 18.5 12.02 18.5H12.01C11.182 18.5 10.515 19.171 10.515 20C10.515 20.829 11.191 21.5 12.02 21.5C12.849 21.5 13.52 20.829 13.52 20Z" fill="currentColor"/>
</svg>
